X: 345
T: Santa Anna's Retreat (from Henry Reed)
B: canberra pickers and fiddlers
B: tunes
L:1/8
Q: 1/4=100
K:Adorian
V:1 
ABcd |: "Am"e2a2e2a2 | edef"G"g4 | B2g2f2gf | edBcd2cd |
"Am"e2a2e2a2 | edef"G"g3a | "Em"b2e2gfed | "Am"c2A2A4 :|
|: "Am"ABAG EGAB | c2A2e2A2 | c2d2 "G"edef | "Em"g2B2"Am"A4 :|
% abcbook-tune_id 67a003e7dd166b20f02769e3
% abcbook-tune_composer_id 
% abcbook-link-0 https://www.youtube.com/watch?v=V8Z-OBve188
% abcbook-link-title-0 Santa Anna&#39;s Retreat
% abcbook-link-1 https://www.youtube.com/watch?v=GLiKEvdz75Y
% abcbook-link-title-1 HENRY REED TUNES: SANTA ANNA&#39;S RETREAT
% abcbook-boost 0
% abcbook-difficulty 0
% abcbook-tags old time tunes
% abcbook-tablature 
% abcbook-transpose 
% abcbook-tuning GDAE
% abcbook-lastupdated 1739287669198
% abcbook-src-url 
% abcbook-soundfonts 
% abcbook-repeats 1


